X:8972
T:La Malette - bourree
C:Gilles Chabenat
N:abc transcription Simon Wascher
N:if you find an error in this transcription please inform simon.wascher@chello.at
M:3/8
L:1/16
K:Dmixo
BGdGBG|AcFAed|BGdGBG|A2FDFA|
BGdGBG|AcFAed|BGdGBG|AFd4||
|:BAGdFG|A3GAB|GFEGBc|F2A2d2|
BAGdAG|F2ADEF|GABcA2|G6:|


